src/assets/healthPage/DentalEmergency/zip.svg

<svg height="40" viewBox="0 0 110 40" width="110" xmlns="http://www.w3.org/2000/svg" xmlns:xlink="http://www.w3.org/1999/xlink"><filter id="a"><feColorMatrix in="SourceGraphic" type="matrix" values="0 0 0 0 1.000000 0 0 0 0 1.000000 0 0 0 0 1.000000 0 0 0 1.000000 0"/></filter><g fill="none" fill-rule="evenodd" filter="url(#a)" transform="translate(-683 -613)"><g transform="translate(683 613)"><g fill="#1f2448"><path d="m53.8592781 32.6471994c-.6997387.0259386-1.3768704-.2518208-1.8580753-.7630279-.470978-.5155302-.7223456-1.1964191-.6997387-1.8956812-.0064591-.7041256.1668608-1.3985242.5038119-2.0167281.2960433-.5522766.6572161-1.0672664 1.076521-1.5325405l10.4013462-11.8063976h-9.0664601c-.8784412 0-1.5071295-.3026173-1.8516162-.9035288-.3353363-.6036134-.5027353-1.2866639-.4844345-1.9777121-.0242217-.6659202.1668608-1.3218432.5447197-1.8697426.3746293-.51850232.9839402-.81263552 1.6212407-.78248187h16.018633c.6771317-.0313425 1.3375773.21707387 1.8279327.68737357.4542919.4560875.6846674 1.1045531.6846674 1.9259429.0193773.6397114-.113573 1.2746673-.3875476 1.8523421-.2626711.5036417-.5920866.9689158-.9796342 1.3833934l-10.8319546 12.1630537h10.2635515c.6173849-.0151308 1.2051653.265871 1.582486.7565433.4020806.5490342.6050048 1.2196558.5748622 1.9000043.0290661.7095295-.1399477 1.4125743-.4887406 2.0296974-.3509458.5641651-.973175.8516516-1.8473101.8516516z"/><path d="m79.0218808 7.23610081c-1.1109697 0-2.0217065-.32639437-2.71068-.9705369-.6889735-.64414254-1.0485315-1.53254046-1.0485315-2.62412427-.0263747-.96772689.3525607-1.90227395 1.0442254-2.57657013.6825144-.67224271 1.5975572-1.01592949 2.7149861-1.01592949.921502.00205347 1.8171675.30558943 2.5513548.86462084.8009317.59226528 1.2078566 1.51308649 1.2078566 2.73652498 0 1.09158382-.3530989 1.97565864-1.0485315 2.62628583-.6954326.65062718-1.6061693.96621379-2.7106799.96621379zm0 25.72236209c-2.8506277 0-3.4448673-1.4698554-3.4448673-2.7019401v-17.9841136c0-.9401671.2820485-1.7010335.8418394-2.2608755.5597909-.55984197 1.4511504-.84516685 2.6525478-.84516685 1.0119298 0 1.8128615.23128607 2.3834176.68953512.5705562.45824903.8870533 1.19749983.8870533 2.14847473v18.1570378c0 .9878293-.310038 1.7141108-.921502 2.1615521-.6114639.4474413-1.3973243.6354963-2.3984888.6354963z"/><path d="m97.968651 14.0967591c-.7336491-.0178328-1.4597625.154551-2.1078282.4993186-.6103874.3474695-1.1330384.830036-1.5286599 1.4114935-.4446032.6581926-.7691743 1.389878-.9581037 2.1615521-.2228398.8970442-.3321067 1.8189461-.3251093 2.7435501 0 2.1048113.4306084 3.7935239 1.2918252 5.019124.8612168 1.2256 2.0303187 1.7984113 3.6364881 1.7984113 1.6061693 0 2.7752708-.6138808 3.5869678-1.8783888.811697-1.2645079 1.244506-2.9488974 1.244506-4.9391465.002644-.9224424-.110391-1.8411021-.335922-2.7349039-.188929-.7684317-.506503-1.4990363-.938726-2.1615521-.384318-.5819979-.901048-1.064024-1.50713-1.4071704-.6308411-.345308-1.3397302-.5220148-2.058308-.5122879zm-8.1944781 25.7532724c-2.6654661 0-3.2295631-1.4936326-3.2295631-2.7473328v-25.4396851c-.0231452-.7968022.2820485-1.5678818.8439925-2.13134445.5576379-.55984199 1.4511503-.84516687 2.6525478-.84516687.7471056-.00761947 1.485599.164332 2.1530421.50148009.7083508.36530231 1.076521 1.08083013 1.076521 2.10756733.1437155-.165737.2976581-.3357971.462904-.5101263.4526771-.4611671.958642-.86613391 1.5071295-1.2062001 1.3332713-.83560201 2.8786172-1.26785839 4.4503379-1.24505402 1.5060534-.02939711 2.9986494.29483571 4.3577574.94675983 1.24392.6165287 2.3269 1.51665309 3.162819 2.62833929.870905 1.1893941 1.506591 2.5349603 1.873146 3.9642866.419305 1.6152198.624921 3.2790745.611464 4.9477928.01561 1.7006011-.221225 3.3936368-.701892 5.0239875-.424687 1.4476995-1.122273 2.8008311-2.054002 3.9859021-.897818 1.1159013-2.035701 2.0140262-3.328603 2.6262858-1.406474.6473849-2.939979.9699965-4.4869394.9445983-1.0361515.0297213-2.0696117-.1167238-3.0573198-.4323104-.7094273-.2415535-1.3833295-.5765941-2.0044821-.9964756-.3369511-.2296649-.6469892-.4955358-.9258081-.7932896v5.7929597c0 1.0072833-.2734364 1.7508572-.8138499 2.2091063-.5404136.458249-1.3714878.6679196-2.5492018.6679196z"/></g><path d="m39.2939485 14.9959648-8.8748394 8.0150353h-21.98040649c-2.05023431-.002702-4.03049475.747897-5.56776679 2.1096748l11.08601358-10.0144709.1700904-.1513087 13.8892743-12.55634813c2.2397021-2.02251028 5.3836817-2.69188893 8.2483042-1.7559909 2.8640842.93595206 5.0138967 3.33495068 5.6388172 6.29335899.6249205 2.95846234-.369785 6.02710984-2.609487 8.04924184z" fill="#e05741"/><path d="m8.43870261 17.1704863c4.65756829 0 8.43346579-3.7908221 8.43346579-8.46669161 0-4.67608569-3.7758975-8.46679964-8.43346579-8.46679964-4.65756825 0-8.43346578 3.79071395-8.43346578 8.46679964 0 4.67586951 3.77589753 8.46669161 8.43346578 8.46669161" fill="#ec9232" opacity=".2"/><path d="m8.43870261 23.0109928c-2.05023431-.0026947-4.03049475.7479043-5.56776679 2.1096821l-.07105039.0648466c-3.46262991 3.1266851-3.7450552 8.4792286-.63084132 11.9555448 3.11437535 3.4763162 8.44584579 3.7600199 11.90847569.6333347l16.3437423-14.7612394z" fill="#1f2448" opacity=".2"/><path d="m30.4212621 23.0110001-16.3458954 14.7612394c-1.5480372 1.3974434-3.5573637 2.1674964-5.63881713 2.1615863h25.21858173c4.795363-.0767693 8.2989007-3.8627278 8.2989007-8.4657531 0-4.6024848-3.6940819-8.3916857-8.2989007-8.4657188z" fill="#21a5a8" opacity=".4"/></g></g></svg>

<?xml version="1.0" encoding="UTF-8"?>
<svg width="110px" height="40px" viewBox="0 0 110 40" version="1.1" xmlns="http://www.w3.org/2000/svg" xmlns:xlink="http://www.w3.org/1999/xlink">
    <title>Bubble Colour</title>
    <defs>
        <filter id="filter-1">
            <feColorMatrix in="SourceGraphic" type="matrix" values="0 0 0 0 1.000000 0 0 0 0 1.000000 0 0 0 0 1.000000 0 0 0 1.000000 0"></feColorMatrix>
        </filter>
    </defs>
    <g id="Design" stroke="none" stroke-width="1" fill="none" fill-rule="evenodd">
        <g id="Health---Dental-Emergency" transform="translate(-1018.000000, -2839.000000)">
            <g id="Group-15" transform="translate(-517.000000, -173.000000)">
                <g id="Bubble-Colour" transform="translate(852.000000, 2399.000000)" filter="url(#filter-1)">
                    <g transform="translate(683.000000, 613.000000)">
                        <path d="M53.8592781,32.6471994 C53.1595394,32.673138 52.4824077,32.3953786 52.0012028,31.8841715 C51.5302248,31.3686413 51.2788572,30.6877524 51.3014641,29.9884903 C51.295005,29.2843647 51.4683249,28.5899661 51.805276,27.9717622 C52.1013193,27.4194856 52.4624921,26.9044958 52.881797,26.4392217 L63.2831432,14.6328241 L54.2166831,14.6328241 C53.3382419,14.6328241 52.7095536,14.3302068 52.3650669,13.7292953 C52.0297306,13.1256819 51.8623316,12.4426314 51.8806324,11.7515832 C51.8564107,11.085663 52.0474932,10.42974 52.4253521,9.8818406 C52.7999814,9.36333828 53.4092923,9.06920508 54.0465928,9.09935873 L70.0652258,9.09935873 C70.7423575,9.06801623 71.4028031,9.3164326 71.8931585,9.7867323 C72.3474504,10.2428198 72.5778259,10.8912854 72.5778259,11.7126752 C72.5972032,12.3523866 72.4642529,12.9873425 72.1902783,13.5650173 C71.9276072,14.068659 71.5981917,14.5339331 71.2106441,14.9484107 L60.3786895,27.1114644 L70.642241,27.1114644 C71.2596259,27.0963336 71.8474063,27.3773354 72.224727,27.8680077 C72.6268076,28.4170419 72.8297318,29.0876635 72.7995892,29.768012 C72.8286553,30.4775415 72.6596415,31.1805863 72.3108486,31.7977094 C71.9599028,32.3618745 71.3376736,32.649361 70.4635385,32.649361 L53.8592781,32.6471994" id="Fill-3" fill="#1F2448"></path>
                        <path d="M79.0218808,7.23610081 C77.9109111,7.23610081 77.0001743,6.90970644 76.3112008,6.26556391 C75.6222273,5.62142137 75.2626693,4.73302345 75.2626693,3.64143964 C75.2362946,2.67371275 75.61523,1.73916569 76.3068947,1.06486951 C76.9894091,0.392626803 77.9044519,0.0489400167 79.0218808,0.0489400167 C79.9433828,0.0509934912 80.8390483,0.354529447 81.5732356,0.913560864 C82.3741673,1.50582614 82.7810922,2.42664735 82.7810922,3.65008584 C82.7810922,4.74166966 82.4279933,5.62574448 81.7325607,6.27637167 C81.0371281,6.92699885 80.1263914,7.24258546 79.0218808,7.24258546 L79.0218808,7.23610081 Z M79.0218808,32.9584629 C76.1712531,32.9584629 75.5770135,31.4886075 75.5770135,30.2565228 L75.5770135,12.2724092 C75.5770135,11.3322421 75.859062,10.5713757 76.4188529,10.0115337 C76.9786438,9.45169173 77.8700033,9.16636685 79.0714007,9.16636685 C80.0833305,9.16636685 80.8842622,9.39765292 81.4548183,9.85590197 C82.0253745,10.314151 82.3418716,11.0534018 82.3418716,12.0043767 L82.3418716,30.1614145 C82.3418716,31.1492438 82.0318336,31.8755253 81.4203696,32.3229666 C80.8089057,32.7704079 80.0230453,32.9584629 79.0218808,32.9584629 L79.0218808,32.9584629 Z" id="Fill-4" fill="#1F2448"></path>
                        <path d="M97.968651,14.0967591 C97.2350019,14.0789263 96.5088885,14.2513101 95.8608228,14.5960777 C95.2504354,14.9435472 94.7277844,15.4261137 94.3321629,16.0075712 C93.8875597,16.6657638 93.5629886,17.3974492 93.3740592,18.1691233 C93.1512194,19.0661675 93.0419525,19.9880694 93.0489499,20.9126734 C93.0489499,23.0174847 93.4795583,24.7061973 94.3407751,25.9317974 C95.2019919,27.1573974 96.3710938,27.7302087 97.9772632,27.7302087 C99.5834325,27.7302087 100.752534,27.1163279 101.564231,25.8518199 C102.375928,24.587312 102.808737,22.9029225 102.808737,20.9126734 C102.811381,19.990231 102.698346,19.0715713 102.472815,18.1777695 C102.283886,17.4093378 101.966312,16.6787332 101.534089,16.0162174 C101.149771,15.4342195 100.633041,14.9521934 100.026959,14.609047 C99.3961179,14.263739 98.6872288,14.0870322 97.968651,14.0967591 Z M89.7741729,39.8500315 C87.1087068,39.8500315 86.5446098,38.3563989 86.5446098,37.1026987 L86.5446098,11.6630136 C86.5214646,10.8662114 86.8266583,10.0951318 87.3886023,9.53166915 C87.9462402,8.97182716 88.8397526,8.68650228 90.0411501,8.68650228 C90.7882557,8.67888281 91.5267491,8.85083428 92.1941922,9.18798237 C92.902543,9.55328468 93.2707132,10.2688125 93.2707132,11.2955497 C93.4144287,11.1298127 93.5683713,10.9597526 93.7336172,10.7854234 C94.1862943,10.3242563 94.6922592,9.91928949 95.2407467,9.5792233 C96.574018,8.74362129 98.1193639,8.31136491 99.6910846,8.33416928 C101.197138,8.30477217 102.689734,8.62900499 104.048842,9.28092911 C105.292762,9.89745781 106.375742,10.7975822 107.211661,11.9092684 C108.082566,13.0986625 108.718252,14.4442287 109.084807,15.873555 C109.504112,17.4887748 109.709728,19.1526295 109.696271,20.8213478 C109.711881,22.5219489 109.475046,24.2149846 108.994379,25.8453353 C108.569692,27.2930348 107.872106,28.6461664 106.940377,29.8312374 C106.042559,30.9471387 104.904676,31.8452636 103.611774,32.4575232 C102.2053,33.1049081 100.671795,33.4275197 99.1248346,33.4021215 C98.0886831,33.4318428 97.0552229,33.2853977 96.0675148,32.9698111 C95.3580875,32.7282576 94.6841853,32.393217 94.0630327,31.9733355 C93.7260816,31.7436706 93.4160435,31.4777997 93.1372246,31.1800459 L93.1372246,36.9730056 C93.1372246,37.9802889 92.8637882,38.7238628 92.3233747,39.1821119 C91.7829611,39.6403609 90.9518869,39.8500315 89.7741729,39.8500315 L89.7741729,39.8500315 Z" id="Fill-5" fill="#1F2448"></path>
                        <path d="M39.2939485,14.9959648 L30.4191091,23.0110001 L8.43870261,23.0110001 C6.3884683,23.0082981 4.40820786,23.7588971 2.87093582,25.1206749 L13.9569494,15.106204 L14.1270398,14.9548953 L28.0163141,2.39854717 C30.2560162,0.376036891 33.3999958,-0.293341761 36.2646183,0.642556267 C39.1287025,1.57850833 41.278515,3.97750695 41.9034355,6.93591526 C42.528356,9.8943776 41.5336505,12.9630251 39.2939485,14.9851571 L39.2939485,14.9959648" id="Fill-6" fill="#E05741"></path>
                        <path d="M8.43870261,17.1704863 C13.0962709,17.1704863 16.8721684,13.3796642 16.8721684,8.70379469 C16.8721684,4.027709 13.0962709,0.236995051 8.43870261,0.236995051 C3.78113436,0.236995051 0.00523682628,4.027709 0.00523682628,8.70379469 C0.00523682628,13.3796642 3.78113436,17.1704863 8.43870261,17.1704863" id="Fill-7" fill="#EC9232" opacity="0.200000003"></path>
                        <path d="M8.43870261,23.0109928 C6.3884683,23.0082981 4.40820786,23.7588971 2.87093582,25.1206749 L2.79988543,25.1855215 C-0.662744476,28.3122066 -0.945169769,33.6647501 2.16904411,37.1410663 C5.28341946,40.6173825 10.6148899,40.9010862 14.0775198,37.774401 L30.4212621,23.0131616 L8.43870261,23.0109928" id="Fill-8" fill="#1F2448" opacity="0.200000003"></path>
                        <path d="M30.4212621,23.0110001 L14.0753667,37.7722395 C12.5273295,39.1696829 10.518003,39.9397359 8.43654957,39.9338258 L33.6551313,39.9338258 C38.4504943,39.8570565 41.954032,36.071098 41.954032,31.4680727 C41.954032,26.8655879 38.2599501,23.076387 33.6551313,23.0023539 L30.4212621,23.0110001" id="Fill-9" fill="#21A5A8" opacity="0.400000006"></path>
                    </g>
                </g>
            </g>
        </g>
    </g>
</svg>
